!!!COM: Bach, Johann Sebastian
!!!OTL: 157. Wo Gott zum Haus nicht gibt
!!!ONM: No. 157
!!!OCL: Erk
!!!SCA: BWV 438
!!!YOE: Riemenschneider, Albert
!!!OPR: 371 Harmonized Chorales and 69 Chorale Melodies with Figured Bass
!!!OPT: Bach Chorale Harmonizations
**harm	**root	**kern	**kern	**kern	**kern
!	!	!bass	!tenor	!alto	!sprno
*Iorgan	*Iorgan	*Iorgan	*Iorgan	*Iorgan	*Iorgan
*k[b-e-a-d-g-]	*k[b-e-a-d-g-]	*k[b-e-a-d-g-]	*k[b-e-a-d-g-]	*k[b-e-a-d-g-]	*k[b-e-a-d-g-]
*D-:	*D-:	*D-:	*D-:	*D-:	*D-:
*met(c)	*met(c)	*met(c)	*met(c)	*met(c)	*met(c)
*M4/4	*M4/4	*M4/4	*M4/4	*M4/4	*M4/4
*MM60	*MM60	*MM60	*MM60	*MM60	*MM60
I	4FF	8D-	8F	4A-	4d-
.	.	8E-	8G-	.	.
=1	=1	=1	=1	=1	=1
Ib	4FF	8F	8A-	8d-	4a-
.	.	8G-	8B-	8e-	.
iiib	8AA	4A-	4c	8f	8a-
V7	8CC	.	.	[8e-	8g-
I	4FF	4D-	4A-	8e-]	4f
.	.	.	.	[8d-	.
V	4CC	4AA-	4A-	8d-]	4e-
.	.	.	.	8c	.
=2	=2	=2	=2	=2	=2
I	4FF	4D-	4A-	8d-	4f
.	.	.	.	8c	.
II	4GG	4E-	4E-	4B-	4g
V;	4CC;	4AA-;	4E-;	4c;	4a-;
Vb	4CC	4C	4A-	[4e-	4a-
=3	=3	=3	=3	=3	=3
I	4FF	4D-	[4A-	8e-]	4f
.	.	.	.	8d-	.
Vb	8CC	8C	8A-]	8e-	4a-
iiib	8AA	8AA-	8c	[8f	.
IV7b	8BB-	8BB-	8d-	8f]	4g-
ii	8GG	8E-	8B-	16e-	.
.	.	.	.	16d-	.
Vb	4CC	8C	4A-	[4e-	4a-
.	.	8AA-	.	.	.
=4	=4	=4	=4	=4	=4
I	4FF	4D-	4A-	8e-]	4f
.	.	.	.	4d-	.
V	4CC	4AA-	8A-	.	4e-
.	.	.	8G-	8c	.
I;	4FF;	4DD-;	4F;	4A-;	4d-;
I	4FF	4D-	4F	4d-	4a-
=5	=5	=5	=5	=5	=5
!!linebreak: 2
IV	4BB-	8GG-	4G-	4d-	4b-
.	.	8AA-	.	.	.
IVb	4BB-	8BB-	8D-	4d-	4b-
.	.	8C	8E-	.	.
I	4FF	8D-	4F	4.A-	4f
.	.	8E-	.	.	.
Ib	8FF	8F	8d-	.	4a-
viioD7/ii	8FF#	8D	8c-	[8f	.
=6	=6	=6	=6	=6	=6
ii	4GG	8E-	4B-	8f]	4g-
.	.	8F	.	16e-	.
.	.	.	.	16d	.
iib	4GG	8G-	4B-	[4e-	4g-
.	.	8A-	.	.	.
V/ii;	4DD;	4B-;	4B-;	8e-]	4f;
.	.	.	.	8d;	.
vi	4DD	4BB-	4B-	4f	4dd-
=7	=7	=7	=7	=7	=7
iii	4AA	4F	4A-	8f	4cc
.	.	.	.	8e-	.
IV	4BB-	4G-	8B-	8d-	4b-
.	.	.	8c	8e-	.
I	4FF	8D-	4d-	8f	4.a-
.	.	8C	.	8e-	.
vi7	4DD	4BB-	4F	4d-	.
.	.	.	.	.	8b-
=8	=8	=8	=8	=8	=8
ii7	4GG	4E-	4.G-	4.d-	8g-
.	.	.	.	.	8f
V	4CC	4AA-	.	.	4e-
.	.	.	16A-	8c	.
.	.	.	16G-	.	.
I;	4FF;	4D-;	4F;	4A-;	4d-;
==	==	==	==	==	==
*-	*-	*-	*-	*-	*-
!!!CDT: 1685/3//-1750/7/28
!!!OCY: Deutschland
!!!AGN: chorale
!!!AST: Baroque
!!!AIN: vox
!!!YOY: 1941
!!!PPP: New York; London
!!!PPR: G. Schirmer
!!!ENC: David Huron
!!!EED: David Huron
!!!YEN: United States of America
!!!YER: 1992
!!!YEC: Copyright 1992 David Huron
!!!YEM: Rights to all derivative electronic formats reserved.
!!!YER: March 20, 1996
!!!AMT: simple quadruple
!!!EEV: 1.1
!!chor2scor: -l 2 -s 0.6 -o %b.pmx
